gamepad/ps4-assets/dpad.svg

<?xml version="1.0" encoding="UTF-8"?><svg id="Layer_1" xmlns="http://www.w3.org/2000/svg" viewBox="0 0 178.5 104"><defs><style>.cls-1{fill:#3ed8d2;}.cls-2{fill:#a400bc;}.cls-3{fill:#fff;}.cls-3,.cls-4{isolation:isolate;opacity:.25;}</style></defs><g><g><path class="cls-2" d="M124.5,20.6c1.4-2,1.2-2.9,1.2-2.9,0,0,.2-.9-1.2-2.9S109.5,1.2,108.8,.8s-28.5-2.2-31.4,1.3c-2.9,3.5-2.6,15.6-2.6,15.6,0,0-.3,12.1,2.6,15.6,2.9,3.5,30.7,1.7,31.4,1.3s14.3-12,15.7-14Z"/><path class="cls-4" d="M124.5,20.6c1.4-2,1.2-2.9,1.2-2.9,0,0,.2-.9-1.2-2.9-.9-1.3-6.9-6.6-11.2-10.3-2.1,3.9-3.4,8.4-3.4,13.2s1.2,9.3,3.4,13.2c4.3-3.7,10.3-9,11.2-10.3Z"/></g><g><path class="cls-2" d="M52.2,49.7c2,1.4,2.9,1.2,2.9,1.2,0,0,.9,.2,2.9-1.2s13.6-15,14-15.7,2.2-28.5-1.3-31.4S55.1,0,55.1,0c0,0-12.1-.2-15.6,2.6-3.5,2.8-1.7,30.7-1.3,31.4,.4,.7,12,14.3,14,15.7Z"/><path class="cls-4" d="M52.2,49.7c2,1.4,2.9,1.2,2.9,1.2,0,0,.9,.2,2.9-1.2,1.3-.9,6.6-6.9,10.3-11.2-3.9-2.1-8.4-3.4-13.2-3.4s-9.3,1.2-13.2,3.4c3.7,4.3,9,10.3,10.3,11.2Z"/></g><g><path class="cls-2" d="M175.9,2.2c-2.9-3.5-30.7-1.7-31.4-1.3-.7,.4-14.3,12-15.7,14s-1.2,2.9-1.2,2.9c0,0-.2,.9,1.2,2.9s15,13.6,15.7,14,28.5,2.2,31.4-1.3,2.6-15.6,2.6-15.6c0,0,.3-12.1-2.6-15.6Z"/><path class="cls-4" d="M140.1,4.6c-4.3,3.7-10.3,9-11.2,10.3-1.4,2-1.2,2.9-1.2,2.9,0,0-.2,.9,1.2,2.9,.9,1.3,6.9,6.6,11.2,10.3,2.1-3.9,3.4-8.4,3.4-13.2s-1.3-9.3-3.4-13.2Z"/></g><g><path class="cls-2" d="M20.6,1.2c-2-1.4-2.9-1.2-2.9-1.2,0,0-.9-.2-2.9,1.2C12.8,2.6,1.2,16.2,.8,16.9s-2.2,28.5,1.3,31.4c3.5,2.9,15.6,2.6,15.6,2.6,0,0,12.1,.3,15.6-2.6,3.5-2.9,1.7-30.7,1.3-31.4S22.6,2.6,20.6,1.2Z"/><path class="cls-4" d="M20.6,1.2c-2-1.4-2.9-1.2-2.9-1.2,0,0-.9-.2-2.9,1.2-1.3,.9-6.6,6.9-10.3,11.2,3.9,2.1,8.4,3.4,13.2,3.4s9.3-1.2,13.2-3.4c-3.7-4.3-9-10.3-10.3-11.2Z"/></g></g><g><g><path class="cls-1" d="M124.5,73.6c1.4-2,1.2-2.9,1.2-2.9,0,0,.2-.9-1.2-2.9s-15-13.6-15.7-14-28.5-2.2-31.4,1.3-2.6,15.6-2.6,15.6c0,0-.3,12.1,2.6,15.6s30.7,1.7,31.4,1.3,14.3-12,15.7-14Z"/><path class="cls-3" d="M124.5,73.6c1.4-2,1.2-2.9,1.2-2.9,0,0,.2-.9-1.2-2.9-.9-1.3-6.9-6.6-11.2-10.3-2.1,3.9-3.4,8.4-3.4,13.2s1.2,9.3,3.4,13.2c4.3-3.7,10.3-9,11.2-10.3Z"/></g><g><path class="cls-1" d="M52.2,102.7c2,1.4,2.9,1.2,2.9,1.2,0,0,.9,.2,2.9-1.2s13.6-15,14-15.7,2.2-28.5-1.3-31.4-15.6-2.6-15.6-2.6c0,0-12.1-.2-15.6,2.6s-1.7,30.7-1.3,31.4c.4,.7,12,14.3,14,15.7Z"/><path class="cls-3" d="M52.2,102.7c2,1.4,2.9,1.2,2.9,1.2,0,0,.9,.2,2.9-1.2,1.3-.9,6.6-6.9,10.3-11.2-3.9-2.1-8.4-3.4-13.2-3.4s-9.3,1.2-13.2,3.4c3.7,4.3,9,10.3,10.3,11.2Z"/></g><g><path class="cls-1" d="M175.9,55.1c-2.9-3.5-30.7-1.7-31.4-1.3s-14.3,12-15.7,14c-1.4,2-1.2,2.9-1.2,2.9,0,0-.2,.9,1.2,2.9s15,13.6,15.7,14,28.5,2.2,31.4-1.3,2.6-15.6,2.6-15.6c0,0,.3-12.1-2.6-15.6Z"/><path class="cls-3" d="M140.1,57.6c-4.3,3.7-10.3,9-11.2,10.3-1.4,2-1.2,2.9-1.2,2.9,0,0-.2,.9,1.2,2.9,.9,1.3,6.9,6.6,11.2,10.3,2.1-3.9,3.4-8.4,3.4-13.2s-1.3-9.3-3.4-13.2Z"/></g><g><path class="cls-1" d="M20.6,54.2c-2-1.4-2.9-1.2-2.9-1.2,0,0-.9-.2-2.9,1.2S1.2,69.2,.8,69.9s-2.2,28.5,1.3,31.4c3.5,2.9,15.6,2.6,15.6,2.6,0,0,12.1,.3,15.6-2.6,3.5-2.9,1.7-30.7,1.3-31.4s-12-14.3-14-15.7Z"/><path class="cls-3" d="M20.6,54.2c-2-1.4-2.9-1.2-2.9-1.2,0,0-.9-.2-2.9,1.2-1.3,.9-6.6,6.9-10.3,11.2,3.9,2.1,8.4,3.4,13.2,3.4s9.3-1.2,13.2-3.4c-3.7-4.3-9-10.3-10.3-11.2Z"/></g></g></svg>

<?xml version="1.0" encoding="utf-8"?>
<!-- Generator: Adobe Illustrator 26.3.1, SVG Export Plug-In . SVG Version: 6.00 Build 0)  -->
<svg version="1.1" id="Layer_1" xmlns="http://www.w3.org/2000/svg" xmlns:xlink="http://www.w3.org/1999/xlink" x="0px" y="0px"
	 viewBox="0 0 178.5 104" style="enable-background:new 0 0 178.5 104;" xml:space="preserve">
<style type="text/css">
	.st0{fill:#A400BC;}
	.st1{opacity:0.25;enable-background:new    ;}
	.st2{fill:#3ED8D2;}
	.st3{opacity:0.25;fill:#FFFFFF;enable-background:new    ;}
</style>
<g>
	<g>
		<path class="st0" d="M124.5,20.6c1.4-2,1.2-2.9,1.2-2.9s0.2-0.9-1.2-2.9s-15-13.6-15.7-14S80.3-1.4,77.4,2.1s-2.6,15.6-2.6,15.6
			s-0.3,12.1,2.6,15.6s30.7,1.7,31.4,1.3S123.1,22.6,124.5,20.6z"/>
		<path class="st1" d="M124.5,20.6c1.4-2,1.2-2.9,1.2-2.9s0.2-0.9-1.2-2.9c-0.9-1.3-6.9-6.6-11.2-10.3c-2.1,3.9-3.4,8.4-3.4,13.2
			s1.2,9.3,3.4,13.2C117.6,27.2,123.6,21.9,124.5,20.6z"/>
	</g>
	<g>
		<path class="st0" d="M52.2,49.7c2,1.4,2.9,1.2,2.9,1.2s0.9,0.2,2.9-1.2s13.6-15,14-15.7s2.2-28.5-1.3-31.4S55.1,0,55.1,0
			S43-0.2,39.5,2.6S37.8,33.3,38.2,34S50.2,48.3,52.2,49.7z"/>
		<path class="st1" d="M52.2,49.7c2,1.4,2.9,1.2,2.9,1.2s0.9,0.2,2.9-1.2c1.3-0.9,6.6-6.9,10.3-11.2c-3.9-2.1-8.4-3.4-13.2-3.4
			s-9.3,1.2-13.2,3.4C45.6,42.8,50.9,48.8,52.2,49.7z"/>
	</g>
	<g>
		<path class="st0" d="M175.9,2.2c-2.9-3.5-30.7-1.7-31.4-1.3s-14.3,12-15.7,14s-1.2,2.9-1.2,2.9s-0.2,0.9,1.2,2.9s15,13.6,15.7,14
			s28.5,2.2,31.4-1.3s2.6-15.6,2.6-15.6S178.8,5.7,175.9,2.2z"/>
		<path class="st1" d="M140.1,4.6c-4.3,3.7-10.3,9-11.2,10.3c-1.4,2-1.2,2.9-1.2,2.9s-0.2,0.9,1.2,2.9c0.9,1.3,6.9,6.6,11.2,10.3
			c2.1-3.9,3.4-8.4,3.4-13.2S142.2,8.5,140.1,4.6z"/>
	</g>
	<g>
		<path class="st0" d="M20.6,1.2c-2-1.4-2.9-1.2-2.9-1.2s-0.9-0.2-2.9,1.2s-13.6,15-14,15.7s-2.2,28.5,1.3,31.4
			c3.5,2.9,15.6,2.6,15.6,2.6s12.1,0.3,15.6-2.6c3.5-2.9,1.7-30.7,1.3-31.4S22.6,2.6,20.6,1.2z"/>
		<path class="st1" d="M20.6,1.2c-2-1.4-2.9-1.2-2.9-1.2s-0.9-0.2-2.9,1.2C13.5,2.1,8.2,8.1,4.5,12.4c3.9,2.1,8.4,3.4,13.2,3.4
			s9.3-1.2,13.2-3.4C27.2,8.1,21.9,2.1,20.6,1.2z"/>
	</g>
</g>
<g>
	<g>
		<path class="st2" d="M124.5,73.6c1.4-2,1.2-2.9,1.2-2.9s0.2-0.9-1.2-2.9s-15-13.6-15.7-14s-28.5-2.2-31.4,1.3s-2.6,15.6-2.6,15.6
			s-0.3,12.1,2.6,15.6s30.7,1.7,31.4,1.3S123.1,75.6,124.5,73.6z"/>
		<path class="st3" d="M124.5,73.6c1.4-2,1.2-2.9,1.2-2.9s0.2-0.9-1.2-2.9c-0.9-1.3-6.9-6.6-11.2-10.3c-2.1,3.9-3.4,8.4-3.4,13.2
			s1.2,9.3,3.4,13.2C117.6,80.2,123.6,74.9,124.5,73.6z"/>
	</g>
	<g>
		<path class="st2" d="M52.2,102.7c2,1.4,2.9,1.2,2.9,1.2s0.9,0.2,2.9-1.2s13.6-15,14-15.7s2.2-28.5-1.3-31.4S55.1,53,55.1,53
			S43,52.8,39.5,55.6S37.8,86.3,38.2,87S50.2,101.3,52.2,102.7z"/>
		<path class="st3" d="M52.2,102.7c2,1.4,2.9,1.2,2.9,1.2s0.9,0.2,2.9-1.2c1.3-0.9,6.6-6.9,10.3-11.2c-3.9-2.1-8.4-3.4-13.2-3.4
			s-9.3,1.2-13.2,3.4C45.6,95.8,50.9,101.8,52.2,102.7z"/>
	</g>
	<g>
		<path class="st2" d="M175.9,55.1c-2.9-3.5-30.7-1.7-31.4-1.3s-14.3,12-15.7,14c-1.4,2-1.2,2.9-1.2,2.9s-0.2,0.9,1.2,2.9
			s15,13.6,15.7,14s28.5,2.2,31.4-1.3s2.6-15.6,2.6-15.6S178.8,58.6,175.9,55.1z"/>
		<path class="st3" d="M140.1,57.6c-4.3,3.7-10.3,9-11.2,10.3c-1.4,2-1.2,2.9-1.2,2.9s-0.2,0.9,1.2,2.9c0.9,1.3,6.9,6.6,11.2,10.3
			c2.1-3.9,3.4-8.4,3.4-13.2S142.2,61.5,140.1,57.6L140.1,57.6z"/>
	</g>
	<g>
		<path class="st2" d="M20.6,54.2c-2-1.4-2.9-1.2-2.9-1.2s-0.9-0.2-2.9,1.2s-13.6,15-14,15.7s-2.2,28.5,1.3,31.4s15.6,2.6,15.6,2.6
			s12.1,0.3,15.6-2.6s1.7-30.7,1.3-31.4S22.6,55.6,20.6,54.2z"/>
		<path class="st3" d="M20.6,54.2c-2-1.4-2.9-1.2-2.9-1.2s-0.9-0.2-2.9,1.2c-1.3,0.9-6.6,6.9-10.3,11.2c3.9,2.1,8.4,3.4,13.2,3.4
			s9.3-1.2,13.2-3.4C27.2,61.1,21.9,55.1,20.6,54.2z"/>
	</g>
</g>
</svg>
